X:1
T:Lux Beata, 10.4.10.4.10.10
T:Albert Lister Peace, 1885
T:Lux Beata, 10.4.10.4.10.10
T:Public Domain
C:Albert Lister Peace, 1885
Z:Public Domain
%%score ( 1 2 ) ( 3 4 )
L:1/8
M:4/4
K:Ab
V:1 treble 
V:2 treble 
V:3 bass 
V:4 bass 
V:1
 [CE]4 [CF]2 [CE]2 | [DE]6 [DE]2 | [CE]2 E2 [EF]2 [EG]2 | [EA]8 | [=DG]4 [DF]2 [DG]2 | E8 | %6
 [CE]4 [CF]2 [CE]2 | [DE]6 [DE]2 | [CE]2 [CE]2 [CF]2 [CE]2 | [DA]8 | [FB]4 [FA]2 [FB]2 | [=Ec]8 | %12
 [Ec]4 [Ed]2 [Ec]2 | [DB]4 [DF]4 | [DA]2 [DG]2 [B,F]2 [B,E]2 | [Ee]8 | [E_Ge]4 [EGd]2 [FGc]2 | %17
 [FB]2 [B,A]2 [=B,G]2 [B,F]2 | [CE]4 [DB]4 | [CA]8 |] %20
V:2
 x8 | x8 | x2 E2 x4 | x8 | x8 | E8 | x8 | x8 | x8 | x8 | x8 | x8 | x8 | x8 | x8 | x8 | x8 | x8 | %18
 x8 | x8 |] %20
V:3
 A,4 A,2 A,2 | [G,B,]6 [G,B,]2 | [A,C]2 [A,C]2 [A,C]2 [G,B,]2 | [F,A,]8 | %4
 [B,,B,]4 [B,,A,]2 [B,,B,]2 | [E,G,]8 | A,4 A,2 A,2 | [G,B,]6 [G,B,]2 | %8
 [_G,A,]2 [G,A,]2 [G,A,]2 [G,A,]2 | [F,A,]8 | [D,F,]4 [D,F,]2 [D,F,]2 | [C,G,]8 | %12
 [F,=A,]4 [F,A,]2 [F,A,]2 | [B,,B,]4 [B,,B,]4 | [E,B,]2 [E,B,]2 [D,G,]2 [D,G,]2 | [C,A,]8 | %16
 [C,=A,]4 [C,A,]2 [C,A,]2 | [D,B,]2 [D,F,]2 [=D,G,]2 [D,A,]2 | [E,A,]4 [E,G,]4 | [A,,A,]8 |] %20
V:4
 A,4 A,2 A,2 | x8 | x8 | x8 | x8 | x8 | A,4 A,2 A,2 | x8 | x8 | x8 | x8 | x8 | x8 | x8 | x8 | x8 | %16
 x8 | x8 | x8 | x8 |] %20

